X: 79
T: John Marshall
M:C
L:1/8
R:Strathspey
C:J.Scott Skinner (1843-1927)
B:Skinner "Harp and Claymore" 1904 p.67
N:Composed in honor of an Aberdeen violin maker who restored Skinner's violin.
Z:AK/Fiddler’s Companion
K:Em
|: B,<E {F}(G>)E B>E {^d}(e>)^c | {^c}(d2) A<d F>A [D2D2] \
|  B,<E {F}(G>)E B>E [ee]>g | f>e ^d<f g<e eB :|
[| [ee]>.f .g/.f/.e/.g/ .f/.e/.^d/.f/ [ee]>^c | {^c}(d2) A>d F>A [DD]>d \
|  [ee]>f g/f/e/g/ f/e/^d/f/ e>g | f<c b>a g<e e>B ||
|| [ee]>f g/f/e/g/ f/e/^d/f/ [ee]>^c | {^c}(d2) A>d F>A D<d \
|  B,<E G>E B>E [ee]>g | .a/.g/.f/.e/ ^d<b g<e e2 |]

%%sep 1 1 500

